assets/Pine decoration/Flat/pine_decoration_flat.svg

<svg width="32" height="32" viewBox="0 0 32 32" fill="none" xmlns="http://www.w3.org/2000/svg">
<path d="M27.1994 18.1378C27.1043 17.8785 26.817 17.7455 26.5577 17.8406C26.2985 17.9358 26.1655 18.223 26.2606 18.4823L26.9691 20.4129L26.2469 21.4353L25.7701 20.1197C25.676 19.86 25.3893 19.7259 25.1297 19.8199C24.87 19.914 24.7358 20.2008 24.8299 20.4604L25.5439 22.4306L23.1416 25.8316C22.9823 26.0571 23.036 26.3691 23.2615 26.5284C23.4871 26.6877 23.7991 26.634 23.9584 26.4085L26.3853 22.9726L28.4057 22.99C28.6818 22.9924 28.9076 22.7705 28.91 22.4943C28.9124 22.2182 28.6904 21.9924 28.4143 21.99L27.0874 21.9786L27.7842 20.9922L29.8457 21.01C30.1218 21.0124 30.3476 20.7905 30.35 20.5143C30.3524 20.2382 30.1304 20.0124 29.8543 20.01L28.4863 19.9982L29.2984 18.8485C29.4577 18.6229 29.404 18.3109 29.1785 18.1516C28.9529 17.9923 28.6409 18.046 28.4816 18.2715L27.6701 19.4204L27.1994 18.1378Z" fill="#86D72F"/>
<path d="M7.1615 18.0839C7.39686 18.2283 7.47058 18.5362 7.32615 18.7715L6.24615 20.5315C6.24116 20.5396 6.23598 20.5476 6.23062 20.5553L6.69971 21.3958L7.21393 20.5584C7.35842 20.3231 7.66632 20.2494 7.90164 20.3939C8.13696 20.5384 8.21059 20.8463 8.0661 21.0816L7.3661 22.2216C7.33175 22.2776 7.28818 22.3244 7.23854 22.3613L7.7087 23.2037L7.94436 23.2914C8.20317 23.3877 8.3349 23.6756 8.2386 23.9344C8.22338 23.9753 8.20337 24.013 8.17945 24.0472L8.63661 24.8663C8.77119 25.1075 8.68481 25.412 8.44368 25.5466C8.20255 25.6812 7.89798 25.5948 7.7634 25.3537L7.01491 24.0126L6.32662 23.7564L5.33115 24.6856C5.12928 24.874 4.81288 24.8631 4.62447 24.6612C4.43605 24.4593 4.44696 24.1429 4.64883 23.9545L5.27877 23.3665L4.61763 23.1205L3.24794 24.105C3.05742 24.242 2.79195 24.1985 2.655 24.008C2.51806 23.8175 2.5615 23.552 2.75203 23.415L3.65837 22.7636L2.86562 22.4686C2.60682 22.3723 2.47508 22.0845 2.57138 21.8256C2.66768 21.5668 2.95555 21.4351 3.21436 21.5314L3.93801 21.8007L3.67021 20.8222C3.60827 20.5959 3.74152 20.3622 3.96784 20.3002C4.19415 20.2383 4.42783 20.3716 4.48977 20.5979L4.91884 22.1656L6.26336 22.6659L4.3534 19.2437C4.21883 19.0026 4.30521 18.698 4.54634 18.5634C4.78747 18.4288 5.09204 18.5152 5.22661 18.7563L5.67223 19.5548L6.47383 18.2485C6.61825 18.0131 6.92613 17.9394 7.1615 18.0839Z" fill="#86D72F"/>
<path d="M7.02999 30H25.92C26.24 30 26.49 29.74 26.49 29.43V27.82H6.45999V29.43C6.45999 29.74 6.71999 30 7.02999 30Z" fill="#86D72F"/>
<path d="M13.81 5.5H19.15L19.15 15.1H24.49V24L16.48 25.453L8.46997 24V12.1H13.81V5.5Z" fill="#44911B"/>
<path d="M26.07 24H6.88002C6.65002 24 6.46002 24.19 6.46002 24.42V28.61H26.49V24.42C26.49 24.19 26.31 24 26.07 24Z" fill="#F3AD61"/>
<path d="M16.48 2C15.01 2 13.81 3.2 13.81 4.67V6.56C13.81 8.03 15.01 9.23 16.48 9.23C17.95 9.23 19.15 8.03 19.15 6.56V4.67C19.15 3.19 17.95 2 16.48 2Z" fill="#FFDEA7"/>
<path d="M13.79 13.62H19.16V14.9H13.79V13.62Z" fill="#86D72F"/>
<path d="M8.46997 16.84H13.81V18.12H8.46997V16.84Z" fill="#86D72F"/>
<path d="M24.4909 19.937H19.1809V18.657H24.4909V19.937Z" fill="#86D72F"/>
<path d="M19.16 21.2H13.79V22.48H19.16V21.2Z" fill="#86D72F"/>
<path d="M21.82 10.25C20.35 10.25 19.15 11.45 19.15 12.92V14.81C19.15 16.28 20.35 17.48 21.82 17.48C23.29 17.48 24.49 16.28 24.49 14.81V12.92C24.49 11.44 23.29 10.25 21.82 10.25Z" fill="#FFDEA7"/>
<path d="M11.14 7.25C9.66997 7.25 8.46997 8.45 8.46997 9.92V11.81C8.46997 13.28 9.66997 14.48 11.14 14.48C12.61 14.48 13.81 13.28 13.81 11.81V9.92C13.81 8.44 12.61 7.25 11.14 7.25Z" fill="#FFDEA7"/>
<path d="M14.57 4.94C14.57 3.88 15.43 3.03 16.48 3.03C17.53 3.03 18.38 3.89 18.39 4.94V6.29001C18.39 7.35001 17.53 8.2 16.48 8.2C15.42 8.2 14.57 7.34001 14.57 6.29001V4.94Z" fill="#533566"/>
<path d="M11.14 8.28C10.09 8.28 9.22998 9.13 9.22998 10.19V11.54C9.22998 12.59 10.08 13.45 11.14 13.45C12.19 13.45 13.05 12.6 13.05 11.54V10.19C13.04 9.14 12.19 8.28 11.14 8.28Z" fill="#533566"/>
<path d="M21.82 11.28C20.77 11.28 19.91 12.13 19.91 13.19V14.54C19.91 15.59 20.76 16.45 21.82 16.45C22.87 16.45 23.73 15.6 23.73 14.54V13.19C23.72 12.14 22.87 11.28 21.82 11.28Z" fill="#533566"/>
</svg>

<svg xmlns="http://www.w3.org/2000/svg" width="32" height="32" fill="none"><path fill="#86D72F" d="M27.2 18.138a.5.5 0 1 0-.94.344l.71 1.93-.723 1.023-.477-1.315a.5.5 0 1 0-.94.34l.714 1.97-2.402 3.402a.5.5 0 0 0 .816.576l2.427-3.435 2.02.017a.5.5 0 1 0 .01-1l-1.328-.011.697-.987 2.062.018a.5.5 0 1 0 .008-1l-1.368-.012.812-1.15a.5.5 0 0 0-.816-.576l-.812 1.148-.47-1.282ZM7.162 18.084a.5.5 0 0 1 .164.688l-1.08 1.76a.51.51 0 0 1-.015.023l.469.84.514-.837a.5.5 0 0 1 .852.524l-.7 1.14a.498.498 0 0 1-.127.14l.47.842.235.087a.5.5 0 0 1 .235.756l.458.82a.5.5 0 0 1-.874.487l-.748-1.341-.688-.257-.996.93a.5.5 0 1 1-.682-.732l.63-.588-.661-.245-1.37.984a.425.425 0 1 1-.496-.69l.906-.651-.792-.295a.5.5 0 1 1 .348-.938l.724.27-.268-.979a.425.425 0 0 1 .82-.224l.429 1.568 1.344.5-1.91-3.422a.5.5 0 0 1 .874-.488l.445.799.802-1.306a.5.5 0 0 1 .688-.165ZM7.03 30h18.89c.32 0 .57-.26.57-.57v-1.61H6.46v1.61c0 .31.26.57.57.57Z"/><path fill="#44911B" d="M13.81 5.5h5.34v9.6h5.34V24l-8.01 1.453L8.47 24V12.1h5.34V5.5Z"/><path fill="#F3AD61" d="M26.07 24H6.88c-.23 0-.42.19-.42.42v4.19h20.03v-4.19c0-.23-.18-.42-.42-.42Z"/><path fill="#FFDEA7" d="M16.48 2c-1.47 0-2.67 1.2-2.67 2.67v1.89c0 1.47 1.2 2.67 2.67 2.67s2.67-1.2 2.67-2.67V4.67c0-1.48-1.2-2.67-2.67-2.67Z"/><path fill="#86D72F" d="M13.79 13.62h5.37v1.28h-5.37v-1.28ZM8.47 16.84h5.34v1.28H8.47v-1.28ZM24.49 19.937h-5.31v-1.28h5.31v1.28ZM19.16 21.2h-5.37v1.28h5.37V21.2Z"/><path fill="#FFDEA7" d="M21.82 10.25c-1.47 0-2.67 1.2-2.67 2.67v1.89c0 1.47 1.2 2.67 2.67 2.67s2.67-1.2 2.67-2.67v-1.89c0-1.48-1.2-2.67-2.67-2.67ZM11.14 7.25c-1.47 0-2.67 1.2-2.67 2.67v1.89c0 1.47 1.2 2.67 2.67 2.67s2.67-1.2 2.67-2.67V9.92c0-1.48-1.2-2.67-2.67-2.67Z"/><path fill="#533566" d="M14.57 4.94c0-1.06.86-1.91 1.91-1.91 1.05 0 1.9.86 1.91 1.91v1.35a1.91 1.91 0 1 1-3.82 0V4.94ZM11.14 8.28c-1.05 0-1.91.85-1.91 1.91v1.35a1.91 1.91 0 1 0 3.82 0v-1.35a1.923 1.923 0 0 0-1.91-1.91ZM21.82 11.28c-1.05 0-1.91.85-1.91 1.91v1.35a1.91 1.91 0 1 0 3.82 0v-1.35a1.923 1.923 0 0 0-1.91-1.91Z"/></svg>
